public/flags/KM.svg

<svg fill="none" height="53" viewBox="0 0 65 53" width="65" xmlns="http://www.w3.org/2000/svg" xmlns:xlink="http://www.w3.org/1999/xlink"><mask id="a" height="43" maskUnits="userSpaceOnUse" width="59" x="6" y="3"><rect fill="#fff" height="41.4393" rx="3.7125" stroke="#fff" stroke-width="1.06071" width="57.9393" x="6.53036" y="3.53036"/></mask><rect fill="#fff" height="41.4393" rx="3.7125" stroke="#f5f5f5" stroke-width="1.06071" width="57.9393" x="6.53036" y="3.53036"/><g clip-rule="evenodd" fill-rule="evenodd" mask="url(#a)"><path d="m6 14.3333h59v-11.3333h-59z" fill="#ffcb49"/><path d="m6 34.1667h59v-11.3333h-59z" fill="#dc1d34"/><path d="m6 45.5h59v-11.3334h-59z" fill="#4985d4"/><path d="m6 45.5 28.0952-21.25-28.0952-21.25z" fill="#4ba343"/><path d="m17.2381 32.75c.7276 0 1.4337-.093 2.1072-.2678-3.6354-.9436-6.3215-4.2715-6.3215-8.2322s2.6861-7.2886 6.3215-8.2322c-.6735-.1748-1.3796-.2678-2.1072-.2678-4.6549 0-8.42853 3.8056-8.42853 8.5s3.77363 8.5 8.42853 8.5zm5.6191-14.1667c0 .7824-.6289 1.4167-1.4048 1.4167-.7758 0-1.4047-.6343-1.4047-1.4167s.6289-1.4166 1.4047-1.4166c.7759 0 1.4048.6342 1.4048 1.4166zm-1.4048 7.0834c.7759 0 1.4048-.6343 1.4048-1.4167s-.6289-1.4166-1.4048-1.4166c-.7758 0-1.4047.6342-1.4047 1.4166s.6289 1.4167 1.4047 1.4167zm1.4048 4.25c0 .7824-.6289 1.4166-1.4048 1.4166-.7758 0-1.4047-.6342-1.4047-1.4166s.6289-1.4167 1.4047-1.4167c.7759 0 1.4048.6343 1.4048 1.4167z" fill="#fff"/></g></svg>

<svg width="65" height="53" viewBox="0 0 65 53" fill="none" xmlns="http://www.w3.org/2000/svg">
<rect x="6.53036" y="3.53036" width="57.9393" height="41.4393" rx="3.7125" fill="white" stroke="#F5F5F5" stroke-width="1.06071"/>
<mask id="mask0" mask-type="alpha" maskUnits="userSpaceOnUse" x="6" y="3" width="59" height="43">
<rect x="6.53036" y="3.53036" width="57.9393" height="41.4393" rx="3.7125" fill="white" stroke="white" stroke-width="1.06071"/>
</mask>
<g mask="url(#mask0)">
<path fill-rule="evenodd" clip-rule="evenodd" d="M6 14.3333H65V3H6V14.3333Z" fill="#FFCB49"/>
<path fill-rule="evenodd" clip-rule="evenodd" d="M6 34.1667H65V22.8334H6V34.1667Z" fill="#DC1D34"/>
<path fill-rule="evenodd" clip-rule="evenodd" d="M6 45.5H65V34.1666H6V45.5Z" fill="#4985D4"/>
<path fill-rule="evenodd" clip-rule="evenodd" d="M6 45.5L34.0952 24.25L6 3V45.5Z" fill="#4BA343"/>
<path fill-rule="evenodd" clip-rule="evenodd" d="M17.2381 32.75C17.9657 32.75 18.6718 32.657 19.3453 32.4822C15.7099 31.5386 13.0238 28.2107 13.0238 24.25C13.0238 20.2893 15.7099 16.9614 19.3453 16.0178C18.6718 15.843 17.9657 15.75 17.2381 15.75C12.5832 15.75 8.80957 19.5556 8.80957 24.25C8.80957 28.9444 12.5832 32.75 17.2381 32.75ZM22.8572 18.5833C22.8572 19.3657 22.2283 20 21.4524 20C20.6766 20 20.0477 19.3657 20.0477 18.5833C20.0477 17.8009 20.6766 17.1667 21.4524 17.1667C22.2283 17.1667 22.8572 17.8009 22.8572 18.5833ZM21.4524 25.6667C22.2283 25.6667 22.8572 25.0324 22.8572 24.25C22.8572 23.4676 22.2283 22.8334 21.4524 22.8334C20.6766 22.8334 20.0477 23.4676 20.0477 24.25C20.0477 25.0324 20.6766 25.6667 21.4524 25.6667ZM22.8572 29.9167C22.8572 30.6991 22.2283 31.3333 21.4524 31.3333C20.6766 31.3333 20.0477 30.6991 20.0477 29.9167C20.0477 29.1343 20.6766 28.5 21.4524 28.5C22.2283 28.5 22.8572 29.1343 22.8572 29.9167Z" fill="white"/>
</g>
</svg>
